X:156 
T:Paddy Byrne's Quick Step*  
B:CRE4.035 (gan ainm)
S:Grier MS
F:file ID: cre.4/156paddy_b
L:1/8
Q:160
M:9/8
R:slip jig
K:G
G2g dBG GFG|EFG ABG FED|
G2g dBG GFG|EFG AGF G3:|
AFD AFD DEF|GAB ABc BAG|
AFD AFD DEF|GAB cAF G3:|

%%%


